X:98
T: Der siebente Sprung (Band 1), S. 270
N: P0873
O: Lothringen
S: PINCK, Louis: Verklingende Weisen, Bd 1, Metz 1928]
R: Tanzlied]
M: 2/4
L: 1/16
K: D
 | D3FA2A2 | B2BBA4 |
D3FA2A2 | B4A4 |
G2G2F2F2 | E2E2D4 |
G2G2F2F2 | E2E2D2
A2 | E8 | D6z2

@@@ Tune index: 7648
